brigadir/img/svg/arrow_to_down.svg

<svg width="26" height="36" viewBox="0 0 26 36" fill="none" xmlns="http://www.w3.org/2000/svg">
<path fill-rule="evenodd" clip-rule="evenodd" d="M13 0C20.1797 0 26 5.68862 26 12.7059V23.2941C26 30.3114 20.1797 36 13 36C5.8203 36 0 30.3114 0 23.2941V12.7059C0 5.68862 5.8203 0 13 0ZM13 2C7.02784 2 2.16728 6.61512 2.00423 12.3681L2 12.6667V23.3333C2 29.2244 6.92487 34 13 34C18.9722 34 23.8327 29.3849 23.9958 23.6319L24 23.3333V12.6667C24 6.77563 19.0751 2 13 2ZM13.8176 15.606V18.0363V18.4412L14.1875 18.0695L15.125 17.1275L15.8176 16.4317L15.9084 16.3404L17.125 15.118V17.5563L15.0323 19.6502L14.1875 20.4954L13.0058 21.6777L11.8176 20.4921L10.9741 19.6507L8.875 17.5563V15.118L10.0908 16.3377L10.1875 16.4347L10.875 17.1245L11.8176 18.07L12.1875 18.4412V18.036V15.6082V11.6777V9.67768H13.8176V11.6777V15.606Z" fill="white"/>
</svg>

<svg width="26" height="36" fill="none" xmlns="http://www.w3.org/2000/svg"><path fill-rule="evenodd" clip-rule="evenodd" d="M13 0c7.18 0 13 5.689 13 12.706v10.588C26 30.311 20.18 36 13 36S0 30.311 0 23.294V12.706C0 5.689 5.82 0 13 0zm0 2C7.028 2 2.167 6.615 2.004 12.368L2 12.667v10.666C2 29.224 6.925 34 13 34c5.972 0 10.833-4.615 10.996-10.368l.004-.299V12.667C24 6.776 19.075 2 13 2zm.818 13.606v2.835l.37-.371.937-.942.693-.696.09-.092 1.217-1.222v2.438l-2.093 2.094-.845.845-1.181 1.183-1.188-1.186-.844-.841-2.099-2.095v-2.438l1.216 1.22.097.097.687.69.943.945.37.371V9.678h1.63v5.928z" fill="#fff"/></svg>
